X: 41539
T: Under The Influence
R: reel
M: 4/4
K: Adorian
|:a2 gf g3 a|e2 dB egdc|A2 GA cd d2|e2 ce dcAG|
a2 gf g3 a|e2 dB egdc|A2 GA ce e2|dcAG A4:|
A2 GA cA A2-|A2 GA cd e2|A2 GA cd d2|e2 ce dcAG|
A2 GA cA A2-|A2 GA cd e2|A2 GA ce e2|dcAG A4:|

